epam-assets/icon-sources/18/action-language.svg

<svg width="18" height="18" viewBox="0 0 18 18" fill="none" xmlns="http://www.w3.org/2000/svg">
<g id="18/action-language">
<path id="icon" fill-rule="evenodd" clip-rule="evenodd" d="M8.9925 1.5C4.8525 1.5 1.5 4.86 1.5 9C1.5 13.14 4.8525 16.5 8.9925 16.5C13.14 16.5 16.5 13.14 16.5 9C16.5 4.86 13.14 1.5 8.9925 1.5ZM14.19 6H11.9775C11.7375 5.0625 11.3925 4.1625 10.9425 3.33C12.3225 3.8025 13.47 4.7625 14.19 6ZM9 3.03C9.6225 3.93 10.11 4.9275 10.4325 6H7.5675C7.89 4.9275 8.3775 3.93 9 3.03ZM3.195 10.5C3.075 10.02 3 9.5175 3 9C3 8.4825 3.075 7.98 3.195 7.5H5.73C5.67 7.995 5.625 8.49 5.625 9C5.625 9.51 5.67 10.005 5.73 10.5H3.195ZM3.81 12H6.0225C6.2625 12.9375 6.6075 13.8375 7.0575 14.67C5.6775 14.1975 4.53 13.245 3.81 12ZM6.0225 6H3.81C4.53 4.755 5.6775 3.8025 7.0575 3.33C6.6075 4.1625 6.2625 5.0625 6.0225 6ZM9 14.97C8.3775 14.07 7.89 13.0725 7.5675 12H10.4325C10.11 13.0725 9.6225 14.07 9 14.97ZM10.755 10.5H7.245C7.1775 10.005 7.125 9.51 7.125 9C7.125 8.49 7.1775 7.9875 7.245 7.5H10.755C10.8225 7.9875 10.875 8.49 10.875 9C10.875 9.51 10.8225 10.005 10.755 10.5ZM10.9425 14.67C11.3925 13.8375 11.7375 12.9375 11.9775 12H14.19C13.47 13.2375 12.3225 14.1975 10.9425 14.67ZM12.27 10.5C12.33 10.005 12.375 9.51 12.375 9C12.375 8.49 12.33 7.995 12.27 7.5H14.805C14.925 7.98 15 8.4825 15 9C15 9.5175 14.925 10.02 14.805 10.5H12.27Z" fill="#6C6F80"/>
</g>
</svg>

<svg xmlns="http://www.w3.org/2000/svg" width="18" height="18" fill="none" viewBox="0 0 18 18">
  <path fill="#6C6F80" fill-rule="evenodd" d="M8.992 1.5C4.853 1.5 1.5 4.86 1.5 9c0 4.14 3.353 7.5 7.492 7.5 4.148 0 7.508-3.36 7.508-7.5 0-4.14-3.36-7.5-7.508-7.5ZM14.19 6h-2.213a11.737 11.737 0 0 0-1.034-2.67A6.022 6.022 0 0 1 14.19 6ZM9 3.03c.623.9 1.11 1.898 1.432 2.97H7.567C7.89 4.928 8.377 3.93 9 3.03ZM3.195 10.5A6.181 6.181 0 0 1 3 9c0-.518.075-1.02.195-1.5H5.73c-.06.495-.105.99-.105 1.5s.045 1.005.105 1.5H3.195ZM3.81 12h2.212c.24.938.585 1.838 1.035 2.67A5.99 5.99 0 0 1 3.81 12Zm2.212-6H3.81a5.99 5.99 0 0 1 3.248-2.67c-.45.832-.795 1.732-1.035 2.67ZM9 14.97c-.623-.9-1.11-1.898-1.433-2.97h2.865A10.565 10.565 0 0 1 9 14.97Zm1.755-4.47h-3.51c-.067-.495-.12-.99-.12-1.5s.053-1.013.12-1.5h3.51c.067.487.12.99.12 1.5s-.053 1.005-.12 1.5Zm.188 4.17A11.67 11.67 0 0 0 11.977 12h2.213a6.022 6.022 0 0 1-3.247 2.67Zm1.327-4.17c.06-.495.105-.99.105-1.5s-.045-1.005-.105-1.5h2.535c.12.48.195.982.195 1.5s-.075 1.02-.195 1.5H12.27Z" clip-rule="evenodd"/>
</svg>
